assets/svg/Logo.svg

<?xml version="1.0" encoding="utf-8"?>
<!-- Generator: Adobe Illustrator 21.1.0, SVG Export Plug-In . SVG Version: 6.00 Build 0)  -->
<svg version="1.1" id="レイヤー_1" xmlns="http://www.w3.org/2000/svg" xmlns:xlink="http://www.w3.org/1999/xlink" x="0px"
	 y="0px" width="148px" height="46px" viewBox="0 0 148 46" style="enable-background:new 0 0 148 46;" xml:space="preserve">
<style type="text/css">
	.st0{fill:#FFF000;}
	.st1{fill:#231815;}
	.st2{fill:#FFFFFF;}
</style>
<g>
	<g>
		<path class="st0" d="M146.6,27l-7-5.4l-9.4-1.7l-6-10.2l-10.6-8.2c-0.8-0.6-1.6-0.3-1.7,0.7L109.3,21c-0.1,1-0.4,2.7-0.5,3.7
			l-2.5,18.8c-0.1,1,0.5,1.5,1.5,1.1l17.6-7.2c1-0.4,2.5-1,3.5-1.4l17.6-7.2C147.3,28.5,147.4,27.6,146.6,27z"/>
		<path class="st1" d="M147.1,26.3l-7.2-5.5l-9.2-1.7l-5.9-10l-10.7-8.3c-0.4-0.3-0.9-0.5-1.3-0.5c-0.9,0-1.6,0.7-1.8,1.8l-2.7,20.1
			c-0.1,0.9-0.2,1.8-0.3,2.4l-2.5,18.8c-0.1,0.7,0.1,1.3,0.4,1.7c0.3,0.4,0.8,0.6,1.3,0.6c0.3,0,0.6-0.1,0.9-0.2l18.1-7.4
			c0.9-0.4,2.2-0.9,3-1.2l17.6-7.2c0.7-0.3,1.2-0.9,1.3-1.5C148.1,27.5,147.8,26.8,147.1,26.3z M129.7,20.7l9.5,1.7l5.7,4.4
			l-18.6-3.4l-12-20.3l9.1,7.1L129.7,20.7z M109.7,24.8c0.1-0.7,0.2-1.6,0.3-2.4l2.6-18.9l12.2,20.7l-17.5,18.3L109.7,24.8z
			 M128.5,35.3c-0.8,0.3-2,0.8-3,1.2l-16.6,6.8l17.3-18.1l18.6,3.4L128.5,35.3z"/>
	</g>
	<path class="st2" d="M99.8,26.4c-0.1,0-0.4,0-1.6,1.4c-0.9,1.1-1.8,2-2.6,2.5c-1.3,0.9-2.5,1.3-3.8,1.3c-1,0-2.3-0.7-3.4-1.9
		c1.3-1.4,2.3-2.5,3-3.3c0.8-0.8,1.3-1.3,1.5-1.6c1.6-2.3,2.4-4.4,2.4-6.3v-0.2l0-0.1c-0.6-1.3-1.3-1.9-2.3-1.9
		c-1.1,0-2.3,0.8-3.7,2.5c-0.5,0.7-1.1,1.5-1.7,2.2c-0.3,0.4-0.7,0.8-1,1.2c0-0.1,0-0.2,0-0.2c0.4-2.4,0.5-2.9,1-4.6l0.2-0.8
		c0.4-1.4,0.5-1.9,0.6-2.3c0.1-0.3,0.1-0.7,0.3-1.4c0.3-1.2,0.6-3.3,0.2-4.2l-0.1-0.3C88.6,7.5,88.4,7,87.5,7l-0.2,0L87.3,7
		c-0.8,0.8-1.3,1.4-1.6,2.1c-0.7,1.7-1.2,3.4-1.6,6.6c-0.4,3.8-0.8,6.6-1,7.4c-0.2,1.1-0.4,2.1-0.6,2.9c-0.2,0.3-0.4,0.6-0.7,1
		c-1.1,1.8-1.7,2.1-1.9,2.1l-0.1,0c-0.2-0.2-0.3-0.4-0.3-0.7c0-0.3,0.1-0.8,0.3-1.2c0.2-0.5,0.3-1,0.3-1.4c0-0.7-0.4-1.8-1.2-3.2
		c-0.8-1.5-1.6-2.2-2.2-2.3l-0.1,0l-0.1,0.1c-0.2,0.2-0.3,0.5-0.6,1c-0.4,0.9-1,2-2.1,3.1c-0.4,0.4-1.1,0-1.7-0.7
		c-0.2-1.4-0.3-1.6-0.4-1.7c-0.5-0.7-1-1-1.7-0.8L69,21.9c-0.2-0.2-0.5-0.4-0.6-0.5l-0.1-0.1l-0.1,0c-0.6,0.2-1,0.4-1.4,0.6
		l-0.1,0.1l0,0.1c-0.9,1.8-1.4,3.6-1.7,5.1c-0.2,0-0.4,0-0.6,0c-0.7-0.1-1.2-1.1-1.4-3c-0.1-1.2-0.2-2.4-0.3-3.6l0-0.7L62.5,20
		c-0.1-0.1-0.3-0.1-0.4-0.1c-0.6-0.1-1.1,0.1-1.6,0.4l-0.1,0.1l0,0.1c0.1,0.8,0.2,1.6,0.1,2.5c-0.3,3-1.5,5.3-3.8,7.1l-0.1-0.1
		c-0.2-0.2-0.3-0.3-0.4-0.4c-0.1-1.3,0-3,0.2-5.2c0.2-2.5,0.3-4.3,0.3-5.3l0-0.1l-0.1-0.1c-0.5-0.6-1.1-0.9-1.6-1l-0.1,0l-0.7,0.6
		l0,0.1c-0.1,0.7-0.2,1.8-0.4,3.3L53.6,23c-0.1,0.9-0.2,1.6-0.2,2.2c0,0.3,0,0.7,0.2,1.2c-0.8,0.2-1.5,0.9-2,2c-0.4,1-1,1.7-1.6,1.9
		c-0.2-0.8-0.2-1.8-0.1-2.9c0-0.5,0.2-1.3,0.3-2.4c0.2-1.2,0.3-1.9,0.4-2.4c0.1-1.2,0-2.1-0.2-2.8l0.1-0.1l0-0.1
		c-0.2-0.4-0.5-0.6-1.1-0.7c-0.9-0.1-1.4,0.5-1.5,1.6c0,0.3,0,0.8,0,1.5c0.1,0.8,0,1.3,0,1.5c0,0.4-0.1,1-0.2,1.8
		c0,0.3-0.1,0.5-0.1,0.8c-0.2,0.2-0.4,0.6-0.7,1.2c-0.6,1.1-1.1,2-1.5,2.6c-0.7,1-1.6,1.6-2.6,1.9c-0.1-0.1-0.2-0.1-0.3-0.1
		c-0.5-1-0.8-2.2-0.9-3.4c-0.2-2.9-0.2-4.8,0.1-5.8c0.5,0.1,1.1,0.1,1.7,0.1c1.8-0.1,2.9-0.7,3.2-1.7l0-0.1l-0.7-0.7l-0.5,0
		c-0.2,0-0.6,0.1-0.9,0.1c-0.3,0-0.7,0.1-0.9,0.1c-0.5,0-1,0-1.3-0.2c0-0.4,0.1-1.3,0.3-2.8c0.2-1.1,0.2-2.1,0.1-3
		c-0.1-1.1-0.4-2.1-1-3l0-0.1l-0.7-0.3l-0.1,0c-0.9,0.2-1.6,1.2-2,3c-0.4,1.5-0.6,2.7-0.5,3.8c0.1,0.8,0.1,1.3,0.1,1.6
		c-1.8-0.1-2.9-0.2-3.5-0.1l-0.5,0l0.4,1.1l0.1,0c1.7,0.9,2.9,1.4,3.6,1.7c0,0.2,0,1-0.1,2.3c0,0.8,0,1.5,0,2.2
		c-0.2,0.2-0.5,0.5-0.8,0.9c-0.9,1.2-1.5,2-1.8,2.3c-0.8,0.8-1.6,1.2-2.4,1.2c-0.5,0-1.2-0.3-1.8-0.6l-0.3-0.1
		c-0.5-0.7-0.8-1.4-0.8-2.3c0-0.5,0.1-1.1,0.3-1.9c0.2-0.8,0.4-1.3,0.4-1.6c0-0.1,0.1-0.2,0.1-0.3c0,0,0-0.1,0-0.2
		c0-0.2,0.1-0.6,0.2-1.2c0.1-0.7,0.2-1.1,0.4-1.4c0.7-1.5,1.4-3,2-4.6c0.7-1.8,1.1-3.4,1.1-4.9c0-1.7-0.3-2.9-1-3.6L34,8.7h-1
		L33,8.7c-1.4,1.4-2.6,4-3,6c0,0.3-0.1,1.5-0.2,3.6c-0.1,1.6-0.3,2.7-0.5,3.2l-0.1,0.2c-0.6,1.1-1.4,2.8-3.2,4.4
		c-0.3,0.2-0.5,0.4-0.8,0.4c-0.2,0-0.4-0.1-0.6-0.2c0.7-2.3,1-3.7,1-4.2c0-1.1-0.3-1.7-0.9-1.9l-1-0.2c-0.1-0.4-0.2-0.8-0.3-1l0-0.1
		l-0.1,0c-0.4-0.2-0.8-0.3-1.1-0.3l-0.3,0.1l-0.1,0.1c-2.5,2.7-4,5.6-4.6,8.7c-0.2,0.2-0.3,0.4-0.5,0.7c-1,1.4-1.7,2.3-2.2,2.8
		c-1,1-2,1.5-3.1,1.5c-1.7,0-2.6-1.4-2.6-4.2c0-0.6,0.2-1.4,0.7-2.3c0.2-0.3,0.3-0.7,0.5-1c0.2-0.5,0.5-1,0.7-1.4
		c2.7-5.7,4-10.1,4-13.4c0-0.7,0-1.3-0.2-1.9l0-0.1c-0.5-0.7-1-1-1.5-1c-0.2,0-0.5,0.1-1.4,0.7c-1.5,1-2.7,3.2-3.5,6.5
		c-0.2,1.1-0.4,2.3-0.6,3.4c-0.3,1.4-0.5,2.8-0.7,4.1l-0.1,0.5c0,0.2,0,0.2-0.1,0.5l-0.1,0.5c0,0.3-0.2,1.3-0.3,1.5
		c-0.3,0.7-1.5,2.2-5.2,5.9l-0.1,0.1c-0.8,0.8-0.8,1.5-0.2,2.7l0,0.1l0.1,0c0,0,0.6,0.1,1.1,0.1c0.4,0,0.7-0.1,0.9-0.2
		c0.7-0.4,2.3-1.9,3.4-3.4c0.2,0.6,0.5,1.7,0.9,2.3c1,1.4,2.8,2.2,5,2.2c1.7,0,3.3-0.7,5-2.2c0.1-0.1,0.1-0.1,0.2-0.2
		c0.2,1.2,0.6,2.1,1.3,2.7l0.1,0.1l0.4-0.1c0.4-0.1,1-0.3,1.8-0.5l0.1,0l0-0.1c0.6-0.7,1.1-1.3,1.4-1.9c0.4-0.9,0.8-1.4,1.1-1.8
		c0.1-0.2,0.2-0.5,0.4-0.9c0.1,0,0.2,0,0.2,0l0.2,0c0.3,0,0.5,0,1.4-0.2l2.3-1.2c0.2,0.5,0.2,1,0.2,1.6c0,1.2-0.3,1.9-0.7,3
		c-0.4,1-0.9,2.3-1.5,4.5c-0.4,1.7-0.1,2.3,0.2,3.1c0.3,0.7,0.6,1.5,0.6,3.3v0.4l0.8,0.9h1l0.3-0.3c0.6-0.7,0.9-1.1,1.5-2.3
		c0.3-0.7,0.5-0.9,0.5-1.1c0.1-0.1,0.1-0.2,0.2-0.4c0.2-1.1,0.1-2.1,0.1-2.8c0-0.2,0-0.3,0-0.5c0-1.6,0-2.5,0-3c0-0.6,0-0.8,0.1-1.3
		c1,0.7,1.9,1,2.8,1c0.8,0,1.8-0.4,3.1-1.3c0.7-0.6,1.4-1.2,1.8-1.8c0.4,2.4,1,3.6,2,3.9c0.2,0.1,0.4,0.1,0.7,0.1c0.1,0,0.3,0,0.4,0
		c1.4-0.1,3-1,4.8-2.7c0.3-0.3,0.6-0.6,0.9-0.9c0.2,1,0.5,1.8,0.9,2.3l0,0l0.1,0c0.2,0.1,0.4,0.1,0.6,0.1c0.2,0,0.3,0,0.5,0
		c0.1,0,0.1,0,0.2,0l0.1,0l0.1,0c1.4-1.1,2.5-2.3,3.6-3.6c0.6,1.1,1.1,1.9,1.4,2.5l0.1,0.1c0.4,0.3,0.8,0.4,1.3,0.5
		c0.8,0.1,1.5-0.3,2.2-1c0.4-0.4,0.9-1.1,1.6-2.3c0.5-0.9,0.9-1.4,1.2-1.7c0.6,1,1.7,1.6,3.2,1.8c0.1,0,0.2,0,0.3,0
		c0.1,1.5,0.5,2.9,1.4,4.2c0.7,1,1.6,1.5,2.7,1.5c0.1,0,0.2,0,0.3,0l0.1,0l0.2-0.2c0.7-0.6,1.3-1.2,1.8-1.6l0.1-0.1
		c0.4-0.9,0.6-1.6,0.8-2.2c0.1-0.9,0.3-1.5,0.5-1.9c0.1-0.4,0.1-1.1,0-2.3c0.1,0,0.2,0.1,0.3,0.1c0.8,0.2,2.2-0.7,2.8-1.3
		c0.5-0.7,1.1-1.2,1.5-1.3c0.1,0.4,0.2,0.8,0.2,1.2c0,0.6-0.2,1.4-0.5,2.4c-0.3,1-0.5,1.9-0.5,2.5c0,1.2,0.7,2,2,2.3l0.1,0l0.1,0
		c0.8-0.2,1.8-0.8,3.1-1.7c0,0,0,0,0.1-0.1c-0.1,1.3-0.2,2.4-0.2,3.4v1.5l1,0.3l0.1,0c0.6-0.3,1.5-1.5,1.7-2.8
		c0.1-0.4,0.2-0.8,0.2-1.1c0.2-0.9,0.3-1.6,0.4-1.9c0.4,0,1.1,0.7,1.7,1.2c0.2,0.2,0.4,0.3,0.5,0.4c1.1,0.8,1.7,1.3,1.8,1.4
		c0.9,0.5,1.9,0.8,3.1,0.8c2.5,0,5-1.3,7.4-3.7c0.7-0.7,1-1.7,1-3.2C100.5,26.8,100.2,26.4,99.8,26.4z M92.5,19.1
		c0.1,0.2,0.2,0.5,0.2,0.8c0,1-0.8,2.5-2.4,4.5c-1.3,1.7-2.8,2.8-3.8,3.5c0.4-1.3,1.3-2.7,2.3-4.3l0.1-0.2
		C90.2,21.3,91.6,19.9,92.5,19.1z M69,32.2c-0.1-0.1-0.2-0.2-0.4-0.4c-0.1-0.1-0.2-0.3-0.3-1c-0.1-0.3-0.2-0.5-0.3-0.7
		c-0.1-0.1-0.1-0.2-0.2-0.3c0.2-1.2,0.4-2.2,0.5-3.1c0.1-0.5,0.1-1,0.1-1.4c0.1-0.4,0.4-0.9,0.8-1.4C70.6,26.2,70.5,29,69,32.2z
		 M32.5,15.2c0.1-0.8,0.3-1.5,0.6-2C33,13.7,32.8,14.4,32.5,15.2z M28.8,39c-0.1,0.5-0.2,0.9-0.4,1.4c0,0.1-0.1,0.2-0.1,0.3
		c-0.1-0.3-0.2-0.5-0.2-0.7c-0.2-0.8-0.4-1.5-0.2-2.5c0.2-0.9,0.7-1.5,1-1.9c0,0,0,0,0-0.1c0,0.4,0,0.8,0,1.1l0,0.2
		C29,37.1,29,37.9,28.8,39z M23,22.2c0,3.4-1.2,6.4-3.4,9c0-0.2-0.1-0.4-0.1-0.7c0-0.2,0-0.6,0.2-1.3c0-0.4,0-0.7,0.1-1
		c0-0.2,0-0.4,0-0.5c0.6-1.1,1.2-2.2,1.6-3.1c0.3-0.7,0.5-1.2,0.6-1.5C22.2,22.8,22.6,22.5,23,22.2z M9.7,19.5
		c0-1.1,0.2-2.3,0.5-3.8c0.1-0.6,0.3-1.1,0.4-1.7c0.1-0.6,0.3-1.1,0.4-1.7c0.4-1.1,0.9-1.9,1.6-2.4c0.1,0.4,0.2,0.9,0.2,1.5
		c0,1.4-1.1,4.3-3.1,8.6C9.7,19.9,9.7,19.7,9.7,19.5z"/>
</g>
</svg>

<svg width="148" height="46" viewBox="0 0 148 46" fill="none" xmlns="http://www.w3.org/2000/svg">
<g clip-path="url(#clip0)">
<path d="M146.6 27L139.6 21.6L130.2 19.9L124.2 9.70001L113.6 1.50001C112.8 0.900006 112 1.20001 111.9 2.20001L109.3 21C109.2 22 108.9 23.7 108.8 24.7L106.3 43.5C106.2 44.5 106.8 45 107.8 44.6L125.4 37.4C126.4 37 127.9 36.4 128.9 36L146.5 28.8C147.3 28.5 147.4 27.6 146.6 27Z" fill="#FFF000"/>
<path d="M147.1 26.3L139.9 20.8L130.7 19.1L124.8 9.1L114.1 0.800003C113.7 0.500003 113.2 0.300003 112.8 0.300003C111.9 0.300003 111.2 1 111 2.1L108.3 22.2C108.2 23.1 108.1 24 108 24.6L105.5 43.4C105.4 44.1 105.6 44.7 105.9 45.1C106.2 45.5 106.7 45.7 107.2 45.7C107.5 45.7 107.8 45.6 108.1 45.5L126.2 38.1C127.1 37.7 128.4 37.2 129.2 36.9L146.8 29.7C147.5 29.4 148 28.8 148.1 28.2C148.1 27.5 147.8 26.8 147.1 26.3ZM129.7 20.7L139.2 22.4L144.9 26.8L126.3 23.4L114.3 3.1L123.4 10.2L129.7 20.7ZM109.7 24.8C109.8 24.1 109.9 23.2 110 22.4L112.6 3.5L124.8 24.2L107.3 42.5L109.7 24.8ZM128.5 35.3C127.7 35.6 126.5 36.1 125.5 36.5L108.9 43.3L126.2 25.2L144.8 28.6L128.5 35.3Z" fill="#231815"/>
<path d="M99.8 26.4C99.7 26.4 99.4 26.4 98.2 27.8C97.3 28.9 96.4 29.8 95.6 30.3C94.3 31.2 93.1 31.6 91.8 31.6C90.8 31.6 89.5 30.9 88.4 29.7C89.7 28.3 90.7 27.2 91.4 26.4C92.2 25.6 92.7 25.1 92.9 24.8C94.5 22.5 95.3 20.4 95.3 18.5V18.3V18.2C94.7 16.9 94 16.3 93 16.3C91.9 16.3 90.7 17.1 89.3 18.8C88.8 19.5 88.2 20.3 87.6 21C87.3 21.4 86.9 21.8 86.6 22.2C86.6 22.1 86.6 22 86.6 22C87 19.6 87.1 19.1 87.6 17.4L87.8 16.6C88.2 15.2 88.3 14.7 88.4 14.3C88.5 14 88.5 13.6 88.7 12.9C89 11.7 89.3 9.6 88.9 8.7L88.8 8.4C88.6 7.5 88.4 7 87.5 7H87.3C86.5 7.8 86 8.4 85.7 9.1C85 10.8 84.5 12.5 84.1 15.7C83.7 19.5 83.3 22.3 83.1 23.1C82.9 24.2 82.7 25.2 82.5 26C82.3 26.3 82.1 26.6 81.8 27C80.7 28.8 80.1 29.1 79.9 29.1H79.8C79.6 28.9 79.5 28.7 79.5 28.4C79.5 28.1 79.6 27.6 79.8 27.2C80 26.7 80.1 26.2 80.1 25.8C80.1 25.1 79.7 24 78.9 22.6C78.1 21.1 77.3 20.4 76.7 20.3H76.6L76.5 20.4C76.3 20.6 76.2 20.9 75.9 21.4C75.5 22.3 74.9 23.4 73.8 24.5C73.4 24.9 72.7 24.5 72.1 23.8C71.9 22.4 71.8 22.2 71.7 22.1C71.2 21.4 70.7 21.1 70 21.3L69 21.9C68.8 21.7 68.5 21.5 68.4 21.4L68.3 21.3H68.2C67.6 21.5 67.2 21.7 66.8 21.9L66.7 22V22.1C65.8 23.9 65.3 25.7 65 27.2C64.8 27.2 64.6 27.2 64.4 27.2C63.7 27.1 63.2 26.1 63 24.2C62.9 23 62.8 21.8 62.7 20.6V19.9L62.5 20C62.4 19.9 62.2 19.9 62.1 19.9C61.5 19.8 61 20 60.5 20.3L60.4 20.4V20.5C60.5 21.3 60.6 22.1 60.5 23C60.2 26 59 28.3 56.7 30.1L56.6 30C56.4 29.8 56.3 29.7 56.2 29.6C56.1 28.3 56.2 26.6 56.4 24.4C56.6 21.9 56.7 20.1 56.7 19.1V19L56.6 18.9C56.1 18.3 55.5 18 55 17.9H54.9L54.2 18.5V18.6C54.1 19.3 54 20.4 53.8 21.9L53.6 23C53.5 23.9 53.4 24.6 53.4 25.2C53.4 25.5 53.4 25.9 53.6 26.4C52.8 26.6 52.1 27.3 51.6 28.4C51.2 29.4 50.6 30.1 50 30.3C49.8 29.5 49.8 28.5 49.9 27.4C49.9 26.9 50.1 26.1 50.2 25C50.4 23.8 50.5 23.1 50.6 22.6C50.7 21.4 50.6 20.5 50.4 19.8L50.5 19.7V19.6C50.3 19.2 50 19 49.4 18.9C48.5 18.8 48 19.4 47.9 20.5C47.9 20.8 47.9 21.3 47.9 22C48 22.8 47.9 23.3 47.9 23.5C47.9 23.9 47.8 24.5 47.7 25.3C47.7 25.6 47.6 25.8 47.6 26.1C47.4 26.3 47.2 26.7 46.9 27.3C46.3 28.4 45.8 29.3 45.4 29.9C44.7 30.9 43.8 31.5 42.8 31.8C42.7 31.7 42.6 31.7 42.5 31.7C42 30.7 41.7 29.5 41.6 28.3C41.4 25.4 41.4 23.5 41.7 22.5C42.2 22.6 42.8 22.6 43.4 22.6C45.2 22.5 46.3 21.9 46.6 20.9V20.8L45.9 20.1H45.4C45.2 20.1 44.8 20.2 44.5 20.2C44.2 20.2 43.8 20.3 43.6 20.3C43.1 20.3 42.6 20.3 42.3 20.1C42.3 19.7 42.4 18.8 42.6 17.3C42.8 16.2 42.8 15.2 42.7 14.3C42.6 13.2 42.3 12.2 41.7 11.3V11.2L41 10.9H40.9C40 11.1 39.3 12.1 38.9 13.9C38.5 15.4 38.3 16.6 38.4 17.7C38.5 18.5 38.5 19 38.5 19.3C36.7 19.2 35.6 19.1 35 19.2H34.5L34.9 20.3H35C36.7 21.2 37.9 21.7 38.6 22C38.6 22.2 38.6 23 38.5 24.3C38.5 25.1 38.5 25.8 38.5 26.5C38.3 26.7 38 27 37.7 27.4C36.8 28.6 36.2 29.4 35.9 29.7C35.1 30.5 34.3 30.9 33.5 30.9C33 30.9 32.3 30.6 31.7 30.3L31.4 30.2C30.9 29.5 30.6 28.8 30.6 27.9C30.6 27.4 30.7 26.8 30.9 26C31.1 25.2 31.3 24.7 31.3 24.4C31.3 24.3 31.4 24.2 31.4 24.1C31.4 24.1 31.4 24 31.4 23.9C31.4 23.7 31.5 23.3 31.6 22.7C31.7 22 31.8 21.6 32 21.3C32.7 19.8 33.4 18.3 34 16.7C34.7 14.9 35.1 13.3 35.1 11.8C35.1 10.1 34.8 8.9 34.1 8.2L34 8.7H33C31.6 10.1 30.4 12.7 30 14.7C30 15 29.9 16.2 29.8 18.3C29.7 19.9 29.5 21 29.3 21.5L29.2 21.7C28.6 22.8 27.8 24.5 26 26.1C25.7 26.3 25.5 26.5 25.2 26.5C25 26.5 24.8 26.4 24.6 26.3C25.3 24 25.6 22.6 25.6 22.1C25.6 21 25.3 20.4 24.7 20.2L23.7 20C23.6 19.6 23.5 19.2 23.4 19V18.9H23.3C22.9 18.7 22.5 18.6 22.2 18.6L21.9 18.7L21.8 18.8C19.3 21.5 17.8 24.4 17.2 27.5C17 27.7 16.9 27.9 16.7 28.2C15.7 29.6 15 30.5 14.5 31C13.5 32 12.5 32.5 11.4 32.5C9.7 32.5 8.8 31.1 8.8 28.3C8.8 27.7 9 26.9 9.5 26C9.7 25.7 9.8 25.3 10 25C10.2 24.5 10.5 24 10.7 23.6C13.4 17.9 14.7 13.5 14.7 10.2C14.7 9.5 14.7 8.9 14.5 8.3V8.2C14 7.5 13.5 7.2 13 7.2C12.8 7.2 12.5 7.3 11.6 7.9C10.1 8.9 8.9 11.1 8.1 14.4C7.9 15.5 7.7 16.7 7.5 17.8C7.2 19.2 7 20.6 6.8 21.9L6.7 22.4C6.7 22.6 6.7 22.6 6.6 22.9L6.5 23.4C6.5 23.7 6.3 24.7 6.2 24.9C5.9 25.6 4.7 27.1 0.999996 30.8L0.899996 30.9C0.0999961 31.7 0.0999961 32.4 0.699996 33.6V33.7H0.799996C0.799996 33.7 1.4 33.8 1.9 33.8C2.3 33.8 2.6 33.7 2.8 33.6C3.5 33.2 5.1 31.7 6.2 30.2C6.4 30.8 6.7 31.9 7.1 32.5C8.1 33.9 9.9 34.7 12.1 34.7C13.8 34.7 15.4 34 17.1 32.5C17.2 32.4 17.2 32.4 17.3 32.3C17.5 33.5 17.9 34.4 18.6 35L18.7 35.1L19.1 35C19.5 34.9 20.1 34.7 20.9 34.5H21V34.4C21.6 33.7 22.1 33.1 22.4 32.5C22.8 31.6 23.2 31.1 23.5 30.7C23.6 30.5 23.7 30.2 23.9 29.8C24 29.8 24.1 29.8 24.1 29.8H24.3C24.6 29.8 24.8 29.8 25.7 29.6L28 28.4C28.2 28.9 28.2 29.4 28.2 30C28.2 31.2 27.9 31.9 27.5 33C27.1 34 26.6 35.3 26 37.5C25.6 39.2 25.9 39.8 26.2 40.6C26.5 41.3 26.8 42.1 26.8 43.9V44.3L27.6 45.2H28.6L28.9 44.9C29.5 44.2 29.8 43.8 30.4 42.6C30.7 41.9 30.9 41.7 30.9 41.5C31 41.4 31 41.3 31.1 41.1C31.3 40 31.2 39 31.2 38.3C31.2 38.1 31.2 38 31.2 37.8C31.2 36.2 31.2 35.3 31.2 34.8C31.2 34.2 31.2 34 31.3 33.5C32.3 34.2 33.2 34.5 34.1 34.5C34.9 34.5 35.9 34.1 37.2 33.2C37.9 32.6 38.6 32 39 31.4C39.4 33.8 40 35 41 35.3C41.2 35.4 41.4 35.4 41.7 35.4C41.8 35.4 42 35.4 42.1 35.4C43.5 35.3 45.1 34.4 46.9 32.7C47.2 32.4 47.5 32.1 47.8 31.8C48 32.8 48.3 33.6 48.7 34.1H48.8C49 34.2 49.2 34.2 49.4 34.2C49.6 34.2 49.7 34.2 49.9 34.2C50 34.2 50 34.2 50.1 34.2H50.2H50.3C51.7 33.1 52.8 31.9 53.9 30.6C54.5 31.7 55 32.5 55.3 33.1L55.4 33.2C55.8 33.5 56.2 33.6 56.7 33.7C57.5 33.8 58.2 33.4 58.9 32.7C59.3 32.3 59.8 31.6 60.5 30.4C61 29.5 61.4 29 61.7 28.7C62.3 29.7 63.4 30.3 64.9 30.5C65 30.5 65.1 30.5 65.2 30.5C65.3 32 65.7 33.4 66.6 34.7C67.3 35.7 68.2 36.2 69.3 36.2C69.4 36.2 69.5 36.2 69.6 36.2H69.7L69.9 36C70.6 35.4 71.2 34.8 71.7 34.4L71.8 34.3C72.2 33.4 72.4 32.7 72.6 32.1C72.7 31.2 72.9 30.6 73.1 30.2C73.2 29.8 73.2 29.1 73.1 27.9C73.2 27.9 73.3 28 73.4 28C74.2 28.2 75.6 27.3 76.2 26.7C76.7 26 77.3 25.5 77.7 25.4C77.8 25.8 77.9 26.2 77.9 26.6C77.9 27.2 77.7 28 77.4 29C77.1 30 76.9 30.9 76.9 31.5C76.9 32.7 77.6 33.5 78.9 33.8H79H79.1C79.9 33.6 80.9 33 82.2 32.1C82.2 32.1 82.2 32.1 82.3 32C82.2 33.3 82.1 34.4 82.1 35.4V36.9L83.1 37.2H83.2C83.8 36.9 84.7 35.7 84.9 34.4C85 34 85.1 33.6 85.1 33.3C85.3 32.4 85.4 31.7 85.5 31.4C85.9 31.4 86.6 32.1 87.2 32.6C87.4 32.8 87.6 32.9 87.7 33C88.8 33.8 89.4 34.3 89.5 34.4C90.4 34.9 91.4 35.2 92.6 35.2C95.1 35.2 97.6 33.9 100 31.5C100.7 30.8 101 29.8 101 28.3C100.5 26.8 100.2 26.4 99.8 26.4ZM92.5 19.1C92.6 19.3 92.7 19.6 92.7 19.9C92.7 20.9 91.9 22.4 90.3 24.4C89 26.1 87.5 27.2 86.5 27.9C86.9 26.6 87.8 25.2 88.8 23.6L88.9 23.4C90.2 21.3 91.6 19.9 92.5 19.1ZM69 32.2C68.9 32.1 68.8 32 68.6 31.8C68.5 31.7 68.4 31.5 68.3 30.8C68.2 30.5 68.1 30.3 68 30.1C67.9 30 67.9 29.9 67.8 29.8C68 28.6 68.2 27.6 68.3 26.7C68.4 26.2 68.4 25.7 68.4 25.3C68.5 24.9 68.8 24.4 69.2 23.9C70.6 26.2 70.5 29 69 32.2ZM32.5 15.2C32.6 14.4 32.8 13.7 33.1 13.2C33 13.7 32.8 14.4 32.5 15.2ZM28.8 39C28.7 39.5 28.6 39.9 28.4 40.4C28.4 40.5 28.3 40.6 28.3 40.7C28.2 40.4 28.1 40.2 28.1 40C27.9 39.2 27.7 38.5 27.9 37.5C28.1 36.6 28.6 36 28.9 35.6C28.9 35.6 28.9 35.6 28.9 35.5C28.9 35.9 28.9 36.3 28.9 36.6V36.8C29 37.1 29 37.9 28.8 39ZM23 22.2C23 25.6 21.8 28.6 19.6 31.2C19.6 31 19.5 30.8 19.5 30.5C19.5 30.3 19.5 29.9 19.7 29.2C19.7 28.8 19.7 28.5 19.8 28.2C19.8 28 19.8 27.8 19.8 27.7C20.4 26.6 21 25.5 21.4 24.6C21.7 23.9 21.9 23.4 22 23.1C22.2 22.8 22.6 22.5 23 22.2ZM9.7 19.5C9.7 18.4 9.9 17.2 10.2 15.7C10.3 15.1 10.5 14.6 10.6 14C10.7 13.4 10.9 12.9 11 12.3C11.4 11.2 11.9 10.4 12.6 9.9C12.7 10.3 12.8 10.8 12.8 11.4C12.8 12.8 11.7 15.7 9.7 20C9.7 19.9 9.7 19.7 9.7 19.5Z" fill="white"/>
</g>
<defs>
<clipPath id="clip0">
<rect width="148" height="46" fill="white"/>
</clipPath>
</defs>
</svg>
